flaticon/constructions/wrench-8.svg

<svg xmlns="http://www.w3.org/2000/svg" width="32" height="32" viewBox="0 0 24 24">
    <path d="M 20.878906 20.398438 L 14.441406 10.121094 C 13.433594 8.515625 12.878906 6.664062 12.808594 4.800781 L 13.199219 4.800781 C 13.320312 4.800781 13.441406 4.761719 13.519531 4.640625 C 13.601562 4.558594 13.640625 4.441406 13.601562 4.320312 C 13.398438 3.28125 11.078125 0 9.601562 0 C 9.359375 0 9.199219 0.160156 9.199219 0.398438 L 9.199219 4 L 6 4 L 6 0.398438 C 6 0.28125 5.921875 0.121094 5.839844 0.078125 C 5.71875 0 5.558594 0 5.441406 0.0390625 C 4.199219 0.601562 2.800781 2 2.800781 4 C 2.800781 5.71875 3.441406 6.839844 4.839844 7.640625 C 7.238281 9 9.199219 10.839844 10.601562 13.039062 L 14.300781 18.945312 C 14.320312 19.003906 14.355469 19.058594 14.398438 19.097656 L 15.296875 20.535156 C 15.320312 20.601562 15.355469 20.660156 15.40625 20.703125 L 16.71875 22.800781 C 17.039062 23.359375 17.558594 23.761719 18.160156 23.917969 C 18.398438 23.960938 18.601562 24 18.800781 24 C 19.238281 24 19.640625 23.878906 20 23.679688 C 20.558594 23.359375 20.960938 22.839844 21.121094 22.238281 C 21.28125 21.601562 21.199219 20.960938 20.878906 20.398438 Z M 10 0.921875 C 10.839844 1.398438 12.160156 3 12.640625 4 L 10 4 Z M 20.320312 22.039062 C 20.199219 22.441406 19.921875 22.800781 19.558594 23 C 19.199219 23.199219 18.761719 23.28125 18.359375 23.160156 C 17.960938 23.039062 17.640625 22.800781 17.398438 22.398438 L 16.394531 20.800781 L 17.601562 20.800781 C 17.839844 20.800781 18 20.640625 18 20.398438 C 18 20.160156 17.839844 20 17.601562 20 L 15.890625 20 L 15.386719 19.199219 L 16.398438 19.199219 C 16.640625 19.199219 16.800781 19.039062 16.800781 18.800781 C 16.800781 18.558594 16.640625 18.398438 16.398438 18.398438 L 14.886719 18.398438 L 11.238281 12.601562 C 9.800781 10.320312 7.71875 8.359375 5.199219 6.960938 C 4.078125 6.320312 3.601562 5.441406 3.601562 4 C 3.601562 2.679688 4.359375 1.679688 5.199219 1.078125 L 5.199219 4.398438 C 5.199219 4.640625 5.359375 4.800781 5.601562 4.800781 L 12 4.800781 C 12.078125 6.839844 12.679688 8.800781 13.761719 10.519531 L 20.160156 20.839844 C 20.359375 21.199219 20.441406 21.640625 20.320312 22.039062 Z M 20.320312 22.039062"/>
    <path d="M 10.800781 5.601562 L 8.398438 5.601562 C 8.160156 5.601562 8 5.761719 8 6 L 8 7.601562 C 8 7.839844 8.160156 8 8.398438 8 L 10.800781 8 C 11.039062 8 11.199219 7.839844 11.199219 7.601562 L 11.199219 6 C 11.199219 5.761719 11.039062 5.601562 10.800781 5.601562 Z M 10.398438 7.199219 L 8.800781 7.199219 L 8.800781 6.398438 L 10.398438 6.398438 Z M 10.398438 7.199219"/>
</svg>

<svg xmlns="http://www.w3.org/2000/svg" width="32" height="32" viewBox="0 0 24 24">
    <path d="M20.879 20.398L14.44 10.121a10.805 10.805 0 0 1-1.632-5.32h.39c.121 0 .242-.04.32-.16.083-.082.122-.2.083-.32C13.398 3.28 11.078 0 9.602 0c-.243 0-.403.16-.403.398V4H6V.398c0-.117-.078-.277-.16-.32A.481.481 0 0 0 5.44.04C4.2.602 2.801 2 2.801 4c0 1.719.64 2.84 2.039 3.64 2.398 1.36 4.36 3.2 5.762 5.4l3.699 5.905c.02.059.054.114.097.153l.899 1.437a.382.382 0 0 0 .11.168l1.312 2.098c.32.558.84.96 1.441 1.117.238.043.442.082.64.082.438 0 .84-.121 1.2-.32.559-.32.96-.84 1.121-1.442a2.453 2.453 0 0 0-.242-1.84zM10 .922C10.84 1.398 12.16 3 12.64 4H10zm10.32 21.117a1.645 1.645 0 0 1-.761.961c-.36.2-.797.281-1.2.16a1.637 1.637 0 0 1-.96-.762l-1.004-1.597h1.207c.238 0 .398-.16.398-.403 0-.238-.16-.398-.398-.398H15.89l-.504-.8h1.011c.243 0 .403-.16.403-.4 0-.241-.16-.402-.403-.402h-1.511l-3.649-5.796C9.801 10.32 7.718 8.359 5.2 6.96 4.08 6.32 3.602 5.44 3.602 4c0-1.32.757-2.32 1.597-2.922v3.32c0 .243.16.403.403.403H12c.078 2.039.68 4 1.762 5.719l6.398 10.32c.2.36.281.8.16 1.2zm0 0"/>
    <path d="M10.8 5.602H8.399C8.16 5.602 8 5.762 8 6v1.602c0 .238.16.398.398.398h2.403c.238 0 .398-.16.398-.398V6c0-.238-.16-.398-.398-.398zm-.402 1.597H8.801v-.8h1.597zm0 0"/>
</svg>
